svg/trash.svg

<svg xmlns="http://www.w3.org/2000/svg" viewBox="0 0 44 61" enable-background="new 0 0 44 61"><style type="text/css">.st0{fill:#333333;}</style><title>trash</title><desc>Created with Sketch.</desc><path class="st0" d="M39 5h-9v-2c0-1.6-1.3-3-3-3h-10c-1.7 0-3 1.3-3 3v2h-9c-2.8 0-5 2.2-5 5v4c0 .5.4 1 1 1h1.2l2.8 43c.1 1.7 1.5 3 3.2 3h27.7c1.7 0 3.1-1.3 3.2-3l2.7-43h1.2c.6 0 1-.4 1-1v-4c0-2.8-2.2-5-5-5zm-2.9 52.8c0 .1-.1.2-.2.2h-27.6c-.1 0-.2-.1-.2-.2l-2.9-42.8h33.6l-2.7 42.8zm4.9-45.8h-38v-2c0-1.1.9-2 2-2h12v-5h10v5h12c1.1 0 2 .9 2 2v2zM32.2 55.1c1.1 0 2-.9 2-2v-31c0-1.1-.9-2-2-2s-2 .9-2 2v31c0 1.1.9 2 2 2zM12.2 55.1c1.1 0 2-.9 2-2v-31c0-1.1-.9-2-2-2s-2 .9-2 2v31c0 1.1.9 2 2 2zM22.2 55c1.1 0 2-.9 2-2v-31c0-1.1-.9-2-2-2s-2 .9-2 2v31c0 1.1.9 2 2 2z"/></svg>

<?xml version="1.0" encoding="utf-8"?>
<!-- Generator: Adobe Illustrator 21.0.0, SVG Export Plug-In . SVG Version: 6.00 Build 0)  -->
<svg version="1.1" id="Layer_1" xmlns="http://www.w3.org/2000/svg" xmlns:xlink="http://www.w3.org/1999/xlink" x="0px" y="0px"
	 viewBox="0 0 44 61" style="enable-background:new 0 0 44 61;" xml:space="preserve">
<style type="text/css">
	.st0{fill:#333333;}
</style>
<title>trash</title>
<desc>Created with Sketch.</desc>
<g>
	<path class="st0" d="M39,5h-9V3c0-1.6-1.3-3-3-3H17c-1.7,0-3,1.3-3,3v2H5c-2.8,0-5,2.2-5,5v4c0,0.5,0.4,1,1,1h1.2l2.8,43
		c0.1,1.7,1.5,3,3.2,3h27.7c1.7,0,3.1-1.3,3.2-3l2.7-43H43c0.6,0,1-0.4,1-1v-4C44,7.2,41.8,5,39,5z M36.1,57.8
		c0,0.1-0.1,0.2-0.2,0.2H8.3c-0.1,0-0.2-0.1-0.2-0.2L5.2,15h33.6L36.1,57.8z M41,12H5H4.8H3v-2c0-1.1,0.9-2,2-2h12V3h10v5h12
		c1.1,0,2,0.9,2,2V12z"/>
	<path class="st0" d="M32.2,55.1c1.1,0,2-0.9,2-2v-31c0-1.1-0.9-2-2-2s-2,0.9-2,2v31C30.2,54.2,31.1,55.1,32.2,55.1z"/>
	<path class="st0" d="M12.2,55.1c1.1,0,2-0.9,2-2v-31c0-1.1-0.9-2-2-2s-2,0.9-2,2v31C10.2,54.2,11.1,55.1,12.2,55.1z"/>
	<path class="st0" d="M22.2,55c1.1,0,2-0.9,2-2V22c0-1.1-0.9-2-2-2c-1.1,0-2,0.9-2,2v31C20.2,54.1,21.1,55,22.2,55z"/>
</g>
</svg>
